dist/assets/img/whatsapp.svg

<svg width="25" height="25" viewBox="0 0 25 25" fill="none" xmlns="http://www.w3.org/2000/svg">
<path d="M12.4999 24.9999C19.4035 24.9999 24.9999 19.4035 24.9999 12.4999C24.9999 5.59642 19.4035 0 12.4999 0C5.59642 0 0 5.59642 0 12.4999C0 19.4035 5.59642 24.9999 12.4999 24.9999Z" fill="#75B73B"/>
<path d="M12.1499 5.29497C8.33986 5.47622 5.33328 8.64925 5.34476 12.4634C5.34827 13.6252 5.62874 14.7217 6.12356 15.6907L5.36395 19.3779C5.32288 19.5774 5.50277 19.7521 5.70091 19.7051L9.31393 18.8492C10.2422 19.3116 11.2848 19.5786 12.3882 19.5954C16.2824 19.655 19.5294 16.563 19.6509 12.6702C19.7809 8.49749 16.337 5.09551 12.1499 5.29497ZM16.461 16.4028C15.403 17.4608 13.996 18.0436 12.4996 18.0436C11.6234 18.0436 10.7845 17.847 10.0062 17.4593L9.50314 17.2086L7.28782 17.7334L7.75408 15.4699L7.50627 14.9844C7.10217 14.1931 6.89729 13.3376 6.89729 12.4413C6.89729 10.9448 7.48005 9.53801 8.5381 8.47987C9.58673 7.43114 11.0166 6.83905 12.4997 6.83905C13.996 6.83905 15.4029 7.42181 16.461 8.47987C17.519 9.53792 18.1018 10.9448 18.1018 12.4411C18.1019 13.9243 17.5097 15.3541 16.461 16.4028Z" fill="white"/>
<path d="M15.9732 13.993L14.5873 13.5951C14.4052 13.5429 14.2089 13.5946 14.0762 13.7298L13.7372 14.0751C13.5943 14.2208 13.3775 14.2675 13.1884 14.191C12.5328 13.9256 11.1536 12.6994 10.8016 12.0862C10.6999 11.9092 10.7167 11.6882 10.8415 11.5265L11.1373 11.1438C11.2532 10.9939 11.2776 10.7924 11.201 10.619L10.618 9.30027C10.4783 8.98445 10.0747 8.89246 9.81099 9.11551C9.42423 9.4427 8.96529 9.93972 8.90958 10.4905C8.81119 11.4615 9.22769 12.6855 10.8022 14.1553C12.6214 15.8534 14.0783 16.0776 15.027 15.8479C15.565 15.7176 15.995 15.1953 16.2662 14.7675C16.4513 14.4756 16.305 14.0883 15.9732 13.993Z" fill="white"/>
</svg>

<svg width="25" height="25" fill="none" xmlns="http://www.w3.org/2000/svg"><path d="M12.5 25C19.404 25 25 19.404 25 12.5S19.404 0 12.5 0 0 5.596 0 12.5 5.596 25 12.5 25z" fill="#75B73B"/><path d="M12.15 5.295c-3.81.181-6.817 3.354-6.805 7.168a7.123 7.123 0 00.779 3.228l-.76 3.687c-.041.2.139.374.337.327l3.613-.856a7.12 7.12 0 003.074.746c3.894.06 7.141-3.032 7.263-6.925a7.155 7.155 0 00-7.501-7.375zm4.311 11.108a5.566 5.566 0 01-3.961 1.64 5.543 5.543 0 01-2.494-.584l-.503-.25-2.215.524.466-2.263-.248-.486a5.539 5.539 0 01-.609-2.543c0-1.496.583-2.903 1.641-3.961A5.612 5.612 0 0112.5 6.839c1.496 0 2.903.583 3.961 1.64a5.566 5.566 0 011.64 3.962 5.612 5.612 0 01-1.64 3.962z" fill="#fff"/><path d="M15.973 13.993l-1.386-.398a.517.517 0 00-.51.135l-.34.345a.505.505 0 01-.549.116c-.655-.265-2.034-1.492-2.386-2.105a.505.505 0 01.04-.56l.295-.382a.517.517 0 00.064-.525L10.618 9.3a.517.517 0 00-.807-.184c-.387.327-.846.824-.901 1.375-.099.97.318 2.194 1.892 3.664 1.82 1.698 3.276 1.923 4.225 1.693.538-.13.968-.653 1.24-1.08a.517.517 0 00-.294-.775z" fill="#fff"/></svg>
